pp/PP-black-sail.svg

<svg xmlns="http://www.w3.org/2000/svg" viewBox="0 0 1000 1000" fill="#1f1a17">
  <circle cy="500" cx="500" r="500"/>
  <circle cy="500" cx="500" r="450" fill="#fff"/>
  <path d="m306 656v-421c-19-1-35 0-45 3-2-6 15-15 45-24v-81h43v70c158-33 473-35 474 238 2 193-340 163-439 226-107 68-59 211-59 211s-65-134-19-222zm43-414v367c47-31 126-69 141-142 31-146-62-206-141-225"/>
</svg>

<svg xmlns="http://www.w3.org/2000/svg" viewBox="0 0 1000 1000" fill="#1f1a17">
  <circle cx="500" cy="500" r="500"/>
  <circle cx="500" cy="500" r="450" fill="#fff"/>
  <path d="M 306 656 V 235 C 287 234 271 235 261 238 C 259 232 276 223 306 214 V 133 H 349 V 203 C 507 170 822 168 823 441 C 825 634 483 604 384 667 C 277 735 325 878 325 878 S 260 744 306 656 Z M 349 242 V 609 C 396 578 475 540 490 467 C 521 321 428 261 349 242 Z"/>
</svg>
